X:1
T:Title
%%score { ( 1 4 ) | ( 2 3 ) }
L:1/8
M:4/4
K:Bb
V:1 treble nm="Grand Piano"
V:4 treble 
V:2 bass 
V:3 bass 
V:1
 z4 z2[Q:1/4=110] F2 | B3 B A2 A2 | B2 F2 z2 F2 | A3 A [DB]2 [FB]2 | c6 e2 | d3 d [Fd]2 c2 | %6
 B2 F2 G2 [EA]2 | [DB]2 [DF]2 F2 =E2 | F6 F2 | B3 B A2 A2 | B2 F2 z2 F2 | A3 A [DB]2 [FB]2 | %12
 c6 e2 | d3 d [Fd]2 c2 | B2 F2 G2 [Ge]2 | d3 d c2 c2 |[M:3/4] [B,DB]6 |[M:1/4] F2 | %18
[M:4/4] z2 FF F2 c2 | d6 e2 | d6 z2 | B4 z4 | [Fe]2 [Fd]2 [Fc]2 [FB]2 | [Fc]6 [EF]2 | z2 FF F2 c2 | %25
 d6 z2 | d6 c2 | B4 z4 | [Ge]2[K:bass][K:treble] [Fd]2 z4 |[M:3/4] [DB]6 |] %30
V:2
 z4 z2 F,2 | B,3 B, A,2 A,2 | B,2 F,2 z2 [D,B,]2 | [F,CE]3 [F,CE] [B,,B,]2 [D,B,]2 | %4
 [F,A,F]6 [A,CF]2 | [B,F]3 [B,F][K:bass] [B,,B,]2 [F,A,E]2 | [G,D]2 z2 z4 | %7
 [B,,F,]2 [B,,B,]2 [A,C]2 [C,B,C]2 | [F,A,C]6 F,2 | B,3 B, A,2 A,2 | B,2 F,2 z2 [D,B,]2 | %11
 [F,CE]3 [F,CE] [B,,B,]2 [D,B,]2 | [F,A,F]6 [A,CF]2 | [B,F]3 [B,F][K:bass] [B,,B,]2 [F,A,E]2 | %14
 [G,D]2 z2 z4 | [F,B,F]3 [F,B,F] [F,A,E]2 [F,A,E]2 |[M:3/4] B,,6 |[M:1/4] F,2 |[M:4/4] B,2 z2 z4 | %19
 B,6 z2 | B,6 z2 | [D,B,]3 [C,A,] [B,,B,]2 [B,,B,]2 | [A,,C]2 [B,,B,]2 [C,A,]2 [D,B,]2 | %23
 [F,A,]6 A,2 | B,2 z2 z4 | B,6 z2 | B,6 z2 | [D,B,]3 [C,A,] [B,,B,]2 [B,,B,]2 | %28
 .[E,B,]2 .[D,B,]2 [F,A,E]3 [B,,B,] |[M:3/4] [B,,B,]6 |] %30
V:3
 x8 | x8 | x8 | x8 | x8 | x4[K:bass] x4 | B,2- [D,B,]2 [E,CE]2 [C,F,]2 | x8 | x8 | x8 | x8 | x8 | %12
 x8 | x4[K:bass] x4 | B,2- [D,B,]2 [E,B,E]2 [E,B,]2 | x8 |[M:3/4] x6 |[M:1/4] x2 | %18
[M:4/4] z F F,2 D,2 [C,A,]2 | B,,2 D,2 F,2 .[F,C]2 | z2 B,,2 D,2 [F,A,F]2 | x8 | x8 | x8 | %24
 z F B,,2 D,2 [F,A,]2 | z2 B,,2 D,2 [F,A,]2 | z2 B,,2 D,2 .[F,A,F]2 | x8 | x8 |[M:3/4] x6 |] %30
V:4
 x8 | x8 | x8 | x8 | x8 | x8 | x8 | x8 | x8 | x8 | x8 | x8 | x8 | x8 | x8 | x8 |[M:3/4] x6 | %17
[M:1/4] x2 |[M:4/4] [DB]6 z2 | z FFF F2 z A, | z FFF F2 c2 | F3- [Fc] [Fd]2 [Fd]2 | x8 | x8 | %24
 [DB]6 z2 | z FFF F2 e2 | z FFF F2 z E, | F3- [Fc] [Fd]2 [Fd]2 | %28
 z[K:bass] C,[K:treble] z E, c3 [DB] |[M:3/4] x6 |] %30

